icons/speech-bubble-arrow-left.svg

<svg xmlns="http://www.w3.org/2000/svg" width="24" height="24" viewBox="0 0 24 24">
  <path d="M15,3 C19.5522847,3 23,6.44771525 23,11 C23,15.5522847 19.5522847,19 15,19 L15,19 L14.492,19 L14.4215793,19.0906275 C13.7103901,19.9663638 12.948642,20.6393906 11.8907103,21.256749 L11.8907103,21.256749 L11.5946555,21.4238497 L11.2369286,21.6140163 L10.9086251,21.7821926 C9.57755795,22.4597178 8,21.4937799 8,20 L8,20 L8,19 C4.27285013,19 1,15.3634999 1,11 C1,6.5377729 4.49099359,3 9,3 L9,3 Z M11.3871006,7.20970461 L11.2928932,7.29289322 L8.29289322,10.2928932 L8.24220802,10.347434 L8.24220802,10.347434 L8.232,10.359 L8.21968877,10.374551 L8.216,10.378 L8.22,10.374 L8.19633458,10.4046934 L8.19633458,10.4046934 C8.17849009,10.4288693 8.1617187,10.453725 8.14606743,10.4793398 L8.12467117,10.5159379 L8.12467117,10.5159379 C8.11379392,10.5357061 8.10337664,10.5561086 8.09365378,10.5769009 L8.07122549,10.628664 L8.07122549,10.628664 C8.06331574,10.6484208 8.05612249,10.6682023 8.04954668,10.6882636 C8.04472872,10.7031487 8.04009773,10.7185367 8.03584514,10.734007 C8.02983363,10.7555635 8.0246398,10.7772539 8.02016515,10.7992059 C8.01670217,10.8166247 8.01362808,10.834051 8.0110178,10.8515331 L8.00399798,10.909968 L8.00399798,10.909968 C8.00307004,10.9208131 8.00232561,10.9308872 8.0017331,10.9409686 L8.00018018,10.980824 L8,11 L8.001,11.037 L8.0017331,11.0590314 L8.00278786,11.0752385 L8.00278786,11.0752385 L8.002,11.059 L8.003,11.081 L8.01101934,11.1489612 L8.01101934,11.1489612 C8.01362808,11.165949 8.01670217,11.1833753 8.02024007,11.2007258 C8.0246398,11.2227461 8.02983363,11.2444365 8.03572097,11.2658396 C8.04009773,11.2814633 8.04472872,11.2968513 8.04973809,11.3121425 C8.05612249,11.3317977 8.06331574,11.3515792 8.07110396,11.3710585 L8.09367336,11.4232215 L8.09367336,11.4232215 C8.10337664,11.4438914 8.11379392,11.4642939 8.12487577,11.484277 C8.13149883,11.4963944 8.13860692,11.5086131 8.14599545,11.5207088 C8.1617187,11.546275 8.17849009,11.5711307 8.19631351,11.5951593 C8.20071786,11.6012086 8.20517454,11.6070733 8.20970461,11.6128994 C8.21507113,11.6196628 8.2173721,11.6225624 8.21968877,11.625449 L8.29289322,11.7071068 L11.2928932,14.7071068 C11.6834175,15.0976311 12.3165825,15.0976311 12.7071068,14.7071068 C13.0675907,14.3466228 13.0953203,13.7793918 12.7902954,13.3871006 L12.7071068,13.2928932 L11.415,12 L15,12 C15.5522847,12 16,11.5522847 16,11 C16,10.4871642 15.6139598,10.0644928 15.1166211,10.0067277 L15,10 L11.415,10 L12.7071068,8.70710678 C13.0976311,8.31658249 13.0976311,7.68341751 12.7071068,7.29289322 C12.3466228,6.93240926 11.7793918,6.90467972 11.3871006,7.20970461 Z"/>
</svg>

<svg xmlns="http://www.w3.org/2000/svg" viewBox="0 0 24 24">
  <path d="M15 3c4.55 0 8 3.45 8 8s-3.45 8-8 8h-.5l-.08.1a8.85 8.85 0 0 1-2.53 2.16l-.3.16-.35.2-.33.16A2 2 0 0 1 8 20v-1c-3.73 0-7-3.64-7-8 0-4.46 3.5-8 8-8zm-3.61 4.21-.1.08-3 3-.05.06-.02.02-.02.03-.05.08-.03.04-.03.06-.02.05a.99.99 0 0 0-.06.22v.09l-.01.04v.1-.02.02l.01.07a1.08 1.08 0 0 0 .06.22l.02.05a1.02 1.02 0 0 0 .13.2l.07.09 3 3a1 1 0 0 0 1.5-1.32l-.08-.1L11.4 12H15a1 1 0 0 0 .12-2H11.4l1.3-1.3a1 1 0 0 0-1.32-1.49z"/>
</svg>
